Numix-Light/16/status/indicator-keyboard-Is-1.svg

<?xml version="1.0" encoding="UTF-8" standalone="no"?>
<svg
   xmlns:dc="http://purl.org/dc/elements/1.1/"
   xmlns:cc="http://creativecommons.org/ns#"
   xmlns:rdf="http://www.w3.org/1999/02/22-rdf-syntax-ns#"
   xmlns:svg="http://www.w3.org/2000/svg"
   xmlns="http://www.w3.org/2000/svg"
   xmlns:sodipodi="http://sodipodi.sourceforge.net/DTD/sodipodi-0.dtd"
   xmlns:inkscape="http://www.inkscape.org/namespaces/inkscape"
   viewBox="0 0 16 16"
   id="svg2"
   version="1.1"
   inkscape:version="0.91 r13725"
   sodipodi:docname="indicator-keyboard-Is-1.svg">
  <metadata
     id="metadata14">
    <rdf:RDF>
      <cc:Work
         rdf:about="">
        <dc:format>image/svg+xml</dc:format>
        <dc:type
           rdf:resource="http://purl.org/dc/dcmitype/StillImage" />
      </cc:Work>
    </rdf:RDF>
  </metadata>
  <defs
     id="defs12" />
  <sodipodi:namedview
     pagecolor="#ffffff"
     bordercolor="#666666"
     borderopacity="1"
     objecttolerance="10"
     gridtolerance="10"
     guidetolerance="10"
     inkscape:pageopacity="0"
     inkscape:pageshadow="2"
     inkscape:window-width="459"
     inkscape:window-height="369"
     id="namedview10"
     showgrid="false"
     inkscape:zoom="14.75"
     inkscape:cx="8"
     inkscape:cy="8"
     inkscape:window-x="75"
     inkscape:window-y="34"
     inkscape:window-maximized="0"
     inkscape:current-layer="svg2" />
  <path
     style="fill:#353535;fill-opacity:1"
     d="M 1.5996094 0 C 0.71320937 2.9605947e-16 0 0.71320937 0 1.5996094 L 0 14.400391 C 2.9605947e-16 15.286791 0.71320937 16 1.5996094 16 L 14.400391 16 C 15.286791 16 16 15.286791 16 14.400391 L 16 1.5996094 C 16 0.71320937 15.286791 0 14.400391 0 L 1.5996094 0 z M 4.3320312 4.859375 L 4.9433594 4.859375 L 4.9433594 11.095703 L 4.3320312 11.095703 L 4.3320312 4.859375 z M 7.7871094 6.3359375 C 8.1051094 6.3359375 8.3663125 6.3620156 8.5703125 6.4160156 C 8.7803125 6.4700156 8.9277187 6.5185469 9.0117188 6.5605469 L 8.8769531 7.0820312 C 8.8049531 7.0460313 8.6818125 6.9975 8.5078125 6.9375 C 8.3398125 6.8775 8.0917187 6.8476563 7.7617188 6.8476562 C 7.6297187 6.8476562 7.5028125 6.8625781 7.3828125 6.8925781 C 7.2688125 6.9165781 7.1661719 6.9595312 7.0761719 7.0195312 C 6.9861719 7.0735313 6.9153281 7.144375 6.8613281 7.234375 C 6.8073281 7.318375 6.7792969 7.4247813 6.7792969 7.5507812 C 6.7792969 7.6767812 6.8035625 7.7830469 6.8515625 7.8730469 C 6.8995625 7.9630469 6.9685938 8.0451875 7.0585938 8.1171875 C 7.1545938 8.1831875 7.2683906 8.2466406 7.4003906 8.3066406 C 7.5383906 8.3666406 7.6951406 8.4319062 7.8691406 8.5039062 C 8.0491406 8.5759062 8.2208125 8.6505156 8.3828125 8.7285156 C 8.5508125 8.8005156 8.6962656 8.8900469 8.8222656 8.9980469 C 8.9482656 9.1000469 9.0509062 9.2269531 9.1289062 9.3769531 C 9.2069062 9.5209531 9.2460938 9.7037813 9.2460938 9.9257812 C 9.2460938 10.345781 9.0875312 10.664859 8.7695312 10.880859 C 8.4575312 11.096859 8.0284219 11.203125 7.4824219 11.203125 C 7.0744219 11.203125 6.7609219 11.167703 6.5449219 11.095703 C 6.3289219 11.029703 6.1852813 10.979359 6.1132812 10.943359 L 6.2675781 10.412109 C 6.2855781 10.424109 6.3247656 10.444609 6.3847656 10.474609 C 6.4447656 10.498609 6.5249531 10.528453 6.6269531 10.564453 C 6.7289531 10.594453 6.8483281 10.622484 6.9863281 10.646484 C 7.1303281 10.670484 7.2964219 10.681641 7.4824219 10.681641 C 7.8184219 10.681641 8.0945469 10.627531 8.3105469 10.519531 C 8.5325469 10.405531 8.6425781 10.217125 8.6425781 9.953125 C 8.6425781 9.827125 8.6220781 9.7189062 8.5800781 9.6289062 C 8.5440781 9.5389062 8.480625 9.4587188 8.390625 9.3867188 C 8.300625 9.3147188 8.18125 9.2456875 8.03125 9.1796875 C 7.88725 9.1136875 7.7062344 9.0353125 7.4902344 8.9453125 C 7.3162344 8.8733125 7.1520937 8.8005156 6.9960938 8.7285156 C 6.8400937 8.6505156 6.7020313 8.56475 6.5820312 8.46875 C 6.4620313 8.36675 6.3649687 8.2454219 6.2929688 8.1074219 C 6.2209688 7.9694219 6.1855469 7.8015156 6.1855469 7.6035156 C 6.1855469 7.2255156 6.327375 6.9195469 6.609375 6.6855469 C 6.897375 6.4515469 7.2891094 6.3359375 7.7871094 6.3359375 z M 11.400391 8.8417969 L 11.667969 8.8417969 L 11.667969 12.896484 L 11.289062 12.896484 L 11.289062 9.421875 C 11.246163 9.468675 11.189341 9.5157063 11.119141 9.5664062 C 11.052841 9.6171063 10.976425 9.66805 10.890625 9.71875 C 10.804825 9.76555 10.714694 9.812575 10.621094 9.859375 C 10.527494 9.902275 10.433444 9.9375437 10.339844 9.9648438 L 10.228516 9.671875 C 10.462516 9.5899751 10.672169 9.4880813 10.855469 9.3632812 C 11.038769 9.2345813 11.220991 9.0601969 11.400391 8.8417969 z "
     id="path4" />
</svg>

<svg xmlns="http://www.w3.org/2000/svg" viewBox="0 0 16 16">
 <path d="m 1.6 0 c -0.886 0 -1.6 0.713 -1.6 1.6 l 0 12.801 c 0 0.886 0.713 1.6 1.6 1.6 l 12.801 0 c 0.886 0 1.6 -0.713 1.6 -1.6 l 0 -12.801 c 0 -0.886 -0.713 -1.6 -1.6 -1.6 l -12.801 0 z m 2.732 4.859 l 0.611 0 l 0 6.236 l -0.611 0 l 0 -6.236 z m 3.455 1.477 c 0.318 0 0.579 0.026 0.783 0.08 c 0.21 0.054 0.357 0.103 0.441 0.145 l -0.135 0.521 c -0.072 -0.036 -0.195 -0.085 -0.369 -0.145 c -0.168 -0.06 -0.416 -0.09 -0.746 -0.09 c -0.132 0 -0.259 0.015 -0.379 0.045 c -0.114 0.024 -0.217 0.067 -0.307 0.127 c -0.09 0.054 -0.161 0.125 -0.215 0.215 c -0.054 0.084 -0.082 0.19 -0.082 0.316 c 0 0.126 0.024 0.232 0.072 0.322 c 0.048 0.09 0.117 0.172 0.207 0.244 c 0.096 0.066 0.21 0.129 0.342 0.189 c 0.138 0.06 0.295 0.125 0.469 0.197 c 0.18 0.072 0.352 0.147 0.514 0.225 c 0.168 0.072 0.313 0.162 0.439 0.27 c 0.126 0.102 0.229 0.229 0.307 0.379 c 0.078 0.144 0.117 0.327 0.117 0.549 c 0 0.42 -0.159 0.739 -0.477 0.955 c -0.312 0.216 -0.741 0.322 -1.287 0.322 c -0.408 0 -0.722 -0.035 -0.938 -0.107 c -0.216 -0.066 -0.36 -0.116 -0.432 -0.152 l 0.154 -0.531 c 0.018 0.012 0.057 0.033 0.117 0.063 c 0.06 0.024 0.14 0.054 0.242 0.09 c 0.102 0.03 0.221 0.058 0.359 0.082 c 0.144 0.024 0.31 0.035 0.496 0.035 c 0.336 0 0.612 -0.054 0.828 -0.162 c 0.222 -0.114 0.332 -0.302 0.332 -0.566 c 0 -0.126 -0.021 -0.234 -0.063 -0.324 c -0.036 -0.09 -0.099 -0.17 -0.189 -0.242 c -0.09 -0.072 -0.209 -0.141 -0.359 -0.207 c -0.144 -0.066 -0.325 -0.144 -0.541 -0.234 c -0.174 -0.072 -0.338 -0.145 -0.494 -0.217 c -0.156 -0.078 -0.294 -0.164 -0.414 -0.26 c -0.12 -0.102 -0.217 -0.223 -0.289 -0.361 c -0.072 -0.138 -0.107 -0.306 -0.107 -0.504 c 0 -0.378 0.142 -0.684 0.424 -0.918 c 0.288 -0.234 0.68 -0.35 1.178 -0.35 z m 3.613 2.506 l 0.268 0 l 0 4.055 l -0.379 0 l 0 -3.475 c -0.043 0.047 -0.1 0.094 -0.17 0.145 c -0.066 0.051 -0.143 0.102 -0.229 0.152 c -0.086 0.047 -0.176 0.094 -0.27 0.141 c -0.094 0.043 -0.188 0.078 -0.281 0.105 l -0.111 -0.293 c 0.234 -0.082 0.444 -0.184 0.627 -0.309 c 0.183 -0.129 0.366 -0.303 0.545 -0.521 z" style="fill:#353535;fill-opacity:1"/>
</svg>
